dist/icons/absolute-items/1.svg

<svg width="60" height="60" viewBox="0 0 60 60" fill="none" xmlns="http://www.w3.org/2000/svg">
<path d="M52.7154 16.8114C39.2385 16.6268 30.5616 4.6268 30.4693 4.53449C30.1923 4.16526 29.6385 4.16526 29.3616 4.53449C29.2693 4.6268 20.5923 16.6268 7.11541 16.8114C6.74618 16.8114 6.46926 17.0883 6.46926 17.4576C6.46926 17.7345 3.88464 45.1499 29.7308 56.4114C29.8231 56.4114 29.9154 56.5037 30.0077 56.5037C30.1 56.5037 30.1923 56.5037 30.2846 56.4114C56.0385 45.2422 53.5462 17.7345 53.5462 17.4576C53.3616 17.0883 53.0846 16.8114 52.7154 16.8114ZM29.9154 54.9345C7.48464 45.0576 7.57695 22.1653 7.76156 18.196C19.7616 17.7345 27.7923 8.78064 29.9154 6.10372C32.0385 8.78064 40.0693 17.7345 52.0693 18.196C52.2539 22.1653 52.3462 45.0576 29.9154 54.9345Z" fill="black" fill-opacity="0.8"/>
<path d="M47.3614 21.796C39.7922 20.3191 33.9768 15.9806 30.3768 12.6575C30.1461 12.4445 29.9153 12.2222 29.9153 12.2222C29.9153 12.2222 29.6845 12.4389 29.4537 12.6575C25.9461 15.9806 20.0384 20.3191 12.4691 21.796C12.255 21.8495 11.8787 21.9299 11.8787 21.9299C11.8787 21.9299 11.9153 22.3793 11.9153 22.5345C12.4691 29.7345 15.423 42.9345 29.5461 50.2268C29.6384 50.3191 29.7307 50.3191 29.823 50.3191C29.9153 50.3191 30.0076 50.3191 30.0999 50.2268C44.3153 42.9345 47.0483 29.7169 47.7307 22.5345C47.7531 22.2985 47.7947 21.8759 47.7947 21.8759C47.7947 21.8759 47.7767 21.8699 47.3614 21.796ZM29.9153 48.8422C16.9922 42.0114 14.0384 30.0114 13.3922 23.0883C20.6845 21.5191 26.3153 17.4575 29.9153 14.1345C33.5153 17.4575 39.2384 21.4268 46.4384 23.0883C45.8845 30.0114 42.8384 42.0114 29.9153 48.8422Z" fill="black" fill-opacity="0.8"/>
<path d="M26.0385 25.2115V28.2577H23.9155H23.177V38.9654H23.9155H36.8385H37.577V28.9961V28.2577H34.7155V25.2115C34.7155 22.8115 32.777 20.7808 30.2847 20.7808C27.7924 20.7808 26.0385 22.8115 26.0385 25.2115ZM36.1924 37.4885H24.6539V29.6423H26.777H34.1616H36.2847V37.4885H36.1924ZM27.5155 25.2115C27.5155 23.55 28.8078 22.1654 30.4693 22.1654C32.1308 22.1654 33.5155 23.55 33.5155 25.2115V28.2577H27.5155V25.2115Z" fill="black" fill-opacity="0.8"/>
<path d="M30.3769 31.95L29.6384 31.95V35.273H30.3769H31.1153V31.95L30.3769 31.95Z" fill="black" fill-opacity="0.8"/>
</svg>

<svg width="60" height="60" fill="none" xmlns="http://www.w3.org/2000/svg"><path d="M52.715 16.811C39.238 16.627 30.562 4.627 30.47 4.534a.692.692 0 00-1.107 0c-.093.093-8.77 12.093-22.247 12.277a.631.631 0 00-.646.647c0 .277-2.584 27.692 23.262 38.953.092 0 .184.093.277.093.092 0 .184 0 .277-.093 25.753-11.169 23.261-38.677 23.261-38.953-.184-.37-.461-.647-.83-.647zm-22.8 38.123C7.485 45.059 7.577 22.166 7.762 18.197c12-.462 20.03-9.415 22.153-12.092C32.038 8.78 40.07 17.734 52.07 18.196c.185 3.97.277 26.862-22.154 36.739z" fill="#000" fill-opacity=".8"/><path d="M47.361 21.796c-7.569-1.477-13.384-5.815-16.984-9.138-.23-.213-.462-.436-.462-.436l-.461.436c-3.508 3.323-9.416 7.661-16.985 9.138-.214.053-.59.134-.59.134s.036.45.036.605c.554 7.2 3.508 20.4 17.631 27.692.092.092.185.092.277.092.092 0 .185 0 .277-.092 14.215-7.292 16.948-20.51 17.63-27.692l.065-.66s-.018-.005-.434-.079zM29.915 48.842c-12.923-6.83-15.877-18.83-16.523-25.754 7.293-1.569 12.923-5.63 16.523-8.954 3.6 3.323 9.323 7.293 16.523 8.954-.553 6.923-3.6 18.923-16.523 25.754z" fill="#000" fill-opacity=".8"/><path d="M26.038 25.212v3.046h-2.861v10.707h14.4V28.258h-2.861v-3.046c0-2.4-1.939-4.431-4.431-4.431-2.493 0-4.247 2.03-4.247 4.43zm10.154 12.277H24.654v-7.847h11.631v7.847h-.093zm-8.677-12.277c0-1.662 1.293-3.047 2.954-3.047 1.662 0 3.047 1.385 3.047 3.047v3.046h-6v-3.046z" fill="#000" fill-opacity=".8"/><path d="M30.377 31.95h-.739v3.323h1.477V31.95h-.738z" fill="#000" fill-opacity=".8"/></svg>
